X:58
T: Ob ich gleich ein Schfer bin (Band 1), S. 171
N: P0833
O: Lothringen
S: PINCK, Louis: Verklingende Weisen, Bd 1, Metz 1928]
R: Arbeits., Berufslied]
M: 2/4
L: 1/16
K: F
 | C4C4 | F3GA2BA | G3FE2F2 | G4z4 |
F4A4 | c2d2c2B2 | A4G4 | F4z4 |
A4c2G2 | A4z2c2 | c3BB2A2 | A2G2G4 |
A4c2G2 | A6c2 | c2ccB2A2 | A2G2G4 |
F4F4 | F2AAA2A2 | G2GGG2F2 | G2GGG4 |
F2FFF2A2 | c3dc2B2 | A4G3F | F4z4 |
F4F4 | F3GA2BA | G3FE2F2 | G4z4 |
F4A4 | c2d2c2B2 | A4G3F | F4z4

@@@ Tune index: 7608
